;FLAVOR:Marlin
;TIME:14808
;Filament used: 7.83111m
;Layer height: 0.15
;MINX:6.038
;MINY:8.043
;MINZ:0.3
;MAXX:93.961
;MAXY:111.683
;MAXZ:10.95
;Generated with Cura_SteamEngine 5.3.0
M82 ;absolute extrusion mode
;MachineType:ENTINA TINA2
;FilamentType:PLA
;InfillDensity:10
;Extruder0Temperature:200

;(**** start.gcode for tina2****)
M203 Z15
M104 S150
G28 Z
G28 X Y; Home extruder
G1 X55 Y55 F1000
G29
M107 ; Turn off fan
G90 ; Absolute positioning
M82 ; Extruder in absolute mode
M109 S210
G92 E0 ; Reset extruder position
G1 X90 Y6 Z0.27 F2000
G1 X20 Y6 Z0.27 E15 F1000
G92 E0 ; Reset extruder position
M203 Z5
G92 E0
G92 E0
G1 F1680 E-3
;LAYER_COUNT:72
;LAYER:0
M107
G0 F3600 X9.811 Y9.632 Z0.3
;TYPE:SKIRT
G1 F1680 E0
G1 F1560 X10.422 Y9.123 E0.03939
G1 X11.014 Y8.79 E0.07303
G1 X11.489 Y8.614 E0.09812
G1 X12.08 Y8.497 E0.12796
G1 X12.953 Y8.483 E0.1712
G1 X86.744 Y8.491 E3.82596
G1 X87.424 Y8.501 E3.85964
G1 X87.929 Y8.549 E3.88477
G1 X88.421 Y8.675 E3.90992
G1 X89.188 Y9.037 E3.95193
G1 X89.751 Y9.449 E3.98648
G1 X90.108 Y9.809 E4.01159
G1 X90.404 Y10.22 E4.03668
G1 X90.632 Y10.673 E4.0618
G1 X90.798 Y11.175 E4.08798
G1 X90.928 Y11.777 E4.11849
G1 X90.943 Y12.572 E4.15787
G1 X90.944 Y54.492 E6.2341
G1 X90.984 Y57.289 E6.37265
G1 X91.099 Y60.004 E6.50724
G1 X91.293 Y62.748 E6.64348
G1 X91.563 Y65.456 E6.77827
G1 X91.912 Y68.186 E6.91459
G1 X92.333 Y70.87 E7.04915
G1 X92.838 Y73.585 E7.18592
G1 X93.147 Y74.986 E7.25698
G1 X93.436 Y76.382 E7.32759
G1 X93.504 Y76.985 E7.35764
G1 X93.517 Y77.666 E7.39138
G1 X93.52 Y85.764 E7.79246
G1 X93.508 Y86.495 E7.82867
G1 X93.343 Y89.323 E7.96897
G1 X93.256 Y92.043 E8.10376
G1 X93.247 Y94.795 E8.24006
G1 X93.315 Y97.546 E8.37636
G1 X93.461 Y100.27 E8.51147
G1 X93.499 Y100.831 E8.53932
G1 X93.517 Y101.607 E8.57776
G1 X93.521 Y105.841 E8.78746
G1 X93.508 Y106.576 E8.82387
G1 X93.46 Y107.081 E8.849
G1 X93.332 Y107.572 E8.87413
G1 X93.129 Y108.037 E8.89926
G1 X92.855 Y108.464 E8.92439
G1 X92.578 Y108.795 E8.94576
G1 X91.588 Y109.79 E9.01528
G1 X91.048 Y110.317 E9.05265
G1 X90.658 Y110.642 E9.0778
G1 X90.222 Y110.901 E9.10292
G1 X89.751 Y111.089 E9.12803
G1 X89.138 Y111.227 E9.15915
G1 X88.265 Y111.243 E9.2024
G1 X82.662 Y111.243 E9.47991
G1 X81.955 Y111.233 E9.51493
G1 X80.94 Y111.191 E9.56524
G1 X79.83 Y111.129 E9.6203
G1 X75.778 Y111.043 E9.82104
G1 X63.633 Y111.04 E10.42256
G1 X62.954 Y111.03 E10.4562
G1 X61.886 Y110.959 E10.50921
G1 X59.132 Y110.802 E10.64583
G1 X56.381 Y110.723 E10.78214
G1 X53.665 Y110.723 E10.91666
G1 X50.913 Y110.8 E11.05302
G1 X48.14 Y110.956 E11.19058
G1 X46.959 Y111.04 E11.24922
G1 X24.223 Y111.043 E12.3753
G1 X21.43 Y111.083 E12.51364
G1 X18.633 Y111.203 E12.6523
G1 X17.927 Y111.242 E12.68732
G1 X11.86 Y111.243 E12.98781
G1 X11.149 Y111.233 E13.02303
G1 X10.644 Y111.186 E13.04815
G1 X10.152 Y111.06 E13.07331
G1 X9.687 Y110.859 E13.0984
G1 X9.139 Y110.511 E13.13055
G1 X7.9 Y109.279 E13.21709
G1 X7.402 Y108.767 E13.25246
G1 X7.078 Y108.377 E13.27758
G1 X6.819 Y107.941 E13.30269
G1 X6.632 Y107.469 E13.32784
G1 X6.496 Y106.857 E13.35889
G1 X6.48 Y105.968 E13.40293
G1 X6.478 Y101.758 E13.61144
G1 X6.498 Y100.862 E13.65583
G1 X6.643 Y98.476 E13.77422
G1 X6.738 Y95.743 E13.90967
G1 X6.756 Y92.991 E14.04597
G1 X6.696 Y90.284 E14.18008
G1 X6.535 Y87.16 E14.33501
G1 X6.493 Y86.486 E14.36846
G1 X6.483 Y85.839 E14.40051
G1 X6.478 Y77.752 E14.80104
G1 X6.492 Y77.008 E14.8379
G1 X6.557 Y76.422 E14.8671
G1 X7.079 Y73.879 E14.99568
G1 X7.556 Y71.195 E15.1307
G1 X7.96 Y68.475 E15.26689
G1 X8.282 Y65.777 E15.40147
G1 X8.533 Y63.03 E15.53809
G1 X8.705 Y60.286 E15.67426
G1 X8.798 Y57.571 E15.80881
G1 X8.818 Y55.584 E15.90723
G1 X8.818 Y12.719 E18.03027
G1 X8.828 Y12.052 E18.06331
G1 X8.876 Y11.547 E18.08843
G1 X9.04 Y10.929 E18.1201
G1 X9.227 Y10.458 E18.1452
G1 X9.486 Y10.022 E18.17032
G1 X9.811 Y9.632 E18.19546
G0 F3600 X9.498 Y9.319
G1 F1560 X10.17 Y8.76 E18.23875
G1 X10.861 Y8.377 E18.27788
G1 X11.336 Y8.201 E18.30297
G1 X12.03 Y8.058 E18.33807
G1 X12.953 Y8.043 E18.38379
G1 X86.75 Y8.051 E22.03884
G1 X87.466 Y8.063 E22.07431
G1 X87.971 Y8.111 E22.09943
G1 X88.571 Y8.259 E22.13004
G1 X89.413 Y8.657 E22.17617
G1 X90.011 Y9.094 E22.21285
G1 X90.445 Y9.524 E22.24311
G1 X90.797 Y10.022 E22.27332
G1 X91.05 Y10.535 E22.30165
G1 X91.216 Y11.037 E22.32783
G1 X91.367 Y11.726 E22.36277
G1 X91.383 Y12.572 E22.40468
G1 X91.384 Y54.492 E24.48091
G1 X91.424 Y57.27 E24.61852
G1 X91.538 Y59.973 E24.75251
G1 X91.731 Y62.704 E24.88811
G1 X92.001 Y65.412 E25.0229
G1 X92.347 Y68.118 E25.15801
G1 X92.766 Y70.79 E25.29197
G1 X93.268 Y73.49 E25.42799
G1 X93.578 Y74.897 E25.49935
G1 X93.867 Y76.293 E25.56996
G1 X93.944 Y76.977 E25.60405
G1 X93.957 Y77.666 E25.63818
G1 X93.96 Y85.771 E26.03961
G1 X93.947 Y86.521 E26.07676
G1 X93.783 Y89.337 E26.21647
G1 X93.696 Y92.057 E26.35125
G1 X93.687 Y94.796 E26.48691
G1 X93.755 Y97.535 E26.62261
G1 X93.9 Y100.24 E26.75678
G1 X93.939 Y100.821 E26.78562
G1 X93.957 Y101.607 E26.82456
G1 X93.961 Y105.849 E27.03466
G1 X93.946 Y106.618 E27.07276
G1 X93.886 Y107.192 E27.10134
G1 X93.758 Y107.683 E27.12647
G1 X93.519 Y108.245 E27.15672
G1 X93.225 Y108.702 E27.18363
G1 X92.89 Y109.105 E27.20959
G1 X91.895 Y110.105 E27.27946
G1 X91.33 Y110.655 E27.31851
G1 X90.913 Y111.003 E27.34541
G1 X90.385 Y111.31 E27.37566
G1 X89.914 Y111.498 E27.40078
G1 X89.191 Y111.666 E27.43754
G1 X88.273 Y111.683 E27.48302
G1 X82.656 Y111.683 E27.76122
G1 X81.937 Y111.673 E27.79683
G1 X80.915 Y111.63 E27.8475
G1 X79.821 Y111.569 E27.90176
G1 X75.769 Y111.483 E28.1025
G1 X63.627 Y111.48 E28.70387
G1 X62.925 Y111.469 E28.73865
G1 X61.857 Y111.398 E28.79166
G1 X59.119 Y111.242 E28.92749
G1 X56.368 Y111.163 E29.0638
G1 X53.677 Y111.163 E29.19708
G1 X50.925 Y111.24 E29.33344
G1 X48.171 Y111.395 E29.47005
G1 X46.99 Y111.479 E29.52869
G1 X24.229 Y111.483 E30.65601
G1 X21.449 Y111.523 E30.79372
G1 X18.652 Y111.642 E30.93237
G1 X17.927 Y111.682 E30.96834
G1 X11.854 Y111.683 E31.26912
G1 X11.143 Y111.673 E31.30434
G1 X10.568 Y111.621 E31.33294
G1 X9.977 Y111.464 E31.36322
G1 X9.512 Y111.263 E31.38831
G1 X8.863 Y110.857 E31.42623
G1 X7.585 Y109.586 E31.5155
G1 X7.087 Y109.074 E31.55087
G1 X6.7 Y108.602 E31.58111
G1 X6.41 Y108.103 E31.60969
G1 X6.202 Y107.564 E31.63831
G1 X6.057 Y106.911 E31.67143
G1 X6.04 Y105.968 E31.71815
G1 X6.038 Y101.748 E31.92716
G1 X6.059 Y100.835 E31.97239
G1 X6.203 Y98.461 E32.09019
G1 X6.298 Y95.728 E32.22563
G1 X6.316 Y92.988 E32.36134
G1 X6.256 Y90.294 E32.4948
G1 X6.096 Y87.183 E32.64909
G1 X6.053 Y86.493 E32.68333
G1 X6.043 Y85.839 E32.71573
G1 X6.038 Y77.744 E33.11666
G1 X6.052 Y77 E33.15352
G1 X6.126 Y76.334 E33.1867
G1 X6.648 Y73.791 E33.31528
G1 X7.123 Y71.118 E33.44975
G1 X7.525 Y68.41 E33.58534
G1 X7.845 Y65.725 E33.71926
G1 X8.095 Y62.99 E33.85529
G1 X8.265 Y60.271 E33.99022
G1 X8.358 Y57.556 E34.12477
G1 X8.378 Y55.58 E34.22264
G1 X8.378 Y12.712 E36.34583
G1 X8.39 Y12.01 E36.3806
G1 X8.441 Y11.47 E36.40747
G1 X8.631 Y10.767 E36.44354
G1 X8.849 Y10.233 E36.4721
G1 X9.148 Y9.74 E36.50066
G1 X9.498 Y9.319 E36.52778
G1 F1680 E33.52778
;MESH:PiColeco_cart-Top (Meshed).stl
G0 F3600 X31.662 Y81.636
;TYPE:WALL-INNER
G1 F1680 E36.52778
G1 F1320 X31.844 Y81.374 E36.54358
G1 X31.912 Y81.123 E36.55646
G1 X31.938 Y80.783 E36.57335
G1 X31.876 Y80.235 E36.60066
G1 X31.757 Y79.971 E36.615
G1 X31.637 Y79.869 E36.6228
G1 X31.299 Y79.809 E36.63981
G1 X31.044 Y79.843 E36.65255
G1 X30.953 Y79.893 E36.65769
G1 X30.773 Y80.158 E36.67356
G1 X30.705 Y80.822 E36.70661
G1 X30.736 Y81.205 E36.72565
G1 X30.804 Y81.446 E36.73805
G1 X30.941 Y81.644 E36.74997
G1 X31.092 Y81.709 E36.75812
G1 X31.479 Y81.715 E36.77729
G1 X31.662 Y81.636 E36.78716
G0 F3600 X31.93 Y81.99
;TYPE:WALL-OUTER
G1 F1320 X32.085 Y81.837 E36.79795
G1 X32.254 Y81.544 E36.8147
G1 X32.348 Y81.198 E36.83246
G1 X32.38 Y80.775 E36.85347
G1 X32.306 Y80.116 E36.88631
G1 X32.129 Y79.727 E36.90748
G1 X31.84 Y79.475 E36.92647
G1 X31.641 Y79.404 E36.93693
G1 X31.295 Y79.365 E36.95418
G1 X30.928 Y79.414 E36.97252
G1 X30.632 Y79.583 E36.9894
G1 X30.411 Y79.909 E37.00891
G1 X30.333 Y80.145 E37.02122
G1 X30.263 Y80.817 E37.05468
G1 X30.3 Y81.283 E37.07783
G1 X30.4 Y81.637 E37.09605
G1 X30.625 Y81.96 E37.11555
G1 X30.776 Y82.066 E37.12469
G1 X30.992 Y82.141 E37.13601
G1 X31.277 Y82.174 E37.15022
G1 X31.565 Y82.149 E37.16454
G1 X31.93 Y81.99 E37.18426
G0 F3600 X31.602 Y81.382
;TYPE:SKIN
G1 F1200 X30.918 Y80.698 E37.23217
G0 F3600 X31.008 Y80.166
G1 F1200 X31.722 Y80.88 E37.28218
G0 F3600 X31.622 Y80.158
G1 F1200 X31.495 Y80.031 E37.29107
G1 F1680 E34.29107
G0 F3600 X43.757 Y81.638
;TYPE:WALL-OUTER
G1 F1680 E37.29107
G1 F953.7 X43.548 Y82.006 E37.32009
G1 X43.411 Y82.131 E37.3328
G1 X43.175 Y82.239 E37.35059
G1 F960 X42.845 Y82.226 E37.37308
G1 F966.4 X42.618 Y82.101 E37.39061
G1 X42.489 Y81.917 E37.40582
G1 X42.432 Y81.634 E37.42535
G1 F960 X43.757 Y81.638 E37.51558
G1 F1680 E34.51558
G0 F3600 X53.174 Y81.68
;TYPE:WALL-INNER
G1 F1680 E37.51558
G1 F1320 X53.336 Y81.543 E37.52609
G1 X53.436 Y81.371 E37.53594
G1 X53.504 Y81.123 E37.54868
G1 X53.53 Y80.784 E37.56552
G1 X53.468 Y80.235 E37.59288
G1 X53.347 Y79.97 E37.60731
G1 X53.228 Y79.87 E37.61501
G1 X52.891 Y79.809 E37.63197
G1 X52.637 Y79.842 E37.64466
G1 X52.546 Y79.89 E37.64975
G1 X52.367 Y80.154 E37.66555
G1 X52.293 Y80.828 E37.69913
G1 X52.319 Y81.15 E37.71513
G1 X52.458 Y81.574 E37.73723
G1 X52.574 Y81.673 E37.74479
G1 X52.885 Y81.731 E37.76046
G1 X53.174 Y81.68 E37.77499
G1 F1680 E34.77499
G0 F3600 X52.219 Y81.964
;TYPE:WALL-OUTER
G1 F1680 E37.77499
G1 F1320 X52.565 Y82.138 E37.79417
G1 X52.89 Y82.174 E37.81037
G1 X53.247 Y82.126 E37.82821
G1 X53.405 Y82.061 E37.83667
G1 X53.679 Y81.83 E37.85442
G1 X53.846 Y81.542 E37.87091
G1 X53.94 Y81.199 E37.88852
G1 X53.972 Y80.776 E37.90953
G1 X53.897 Y80.116 E37.94243
G1 X53.72 Y79.727 E37.9636
G1 X53.431 Y79.475 E37.98259
G1 X53.234 Y79.404 E37.99296
G1 X52.887 Y79.365 E38.01026
G1 X52.521 Y79.414 E38.02855
G1 X52.226 Y79.578 E38.04526
G1 X52.002 Y79.908 E38.06502
G1 X51.926 Y80.145 E38.07735
G1 X51.851 Y80.821 E38.11103
G1 X51.883 Y81.226 E38.13115
G1 X52.005 Y81.671 E38.15401
G1 X52.219 Y81.964 E38.17198
G1 F1680 E35.17198
G0 F3600 X52.882 Y81.506
;TYPE:SKIN
G1 F1680 E38.17198
G1 F1200 X52.527 Y81.151 E38.19684
G0 F3600 X52.526 Y80.528
G1 F1200 X53.245 Y81.246 E38.24717
G0 F3600 X53.319 Y80.698
G1 F1200 X52.675 Y80.054 E38.29228
G1 X52.605 Y79.984
G1 F1680 E35.29228
G0 F3600 X70.108 Y82.759
;TYPE:WALL-INNER
G1 F1680 E38.29228
G1 F953.7 X69.667 Y82.852 E38.32317
G1 X69.545 Y82.944 E38.33365
G1 F949 X69.488 Y83.252 E38.35523
G1 F950.6 X69.513 Y83.485 E38.37134
G1 F955.3 X69.583 Y83.605 E38.38085
G1 X69.77 Y83.687 E38.39483
G1 X70.108 Y83.726 E38.41811
G1 X70.108 Y82.759 E38.48429
G1 F1680 E35.48429
G0 F3600 X70.632 Y84.258
;TYPE:WALL-OUTER
G1 F1680 E38.48429
G1 F1320 X70.632 Y82.235 E38.58449
G1 X69.953 Y82.235 E38.61812
G1 X69.434 Y82.37 E38.64468
G1 X69.154 Y82.583 E38.66211
G1 X68.988 Y82.946 E38.68187
G1 X68.958 Y83.257 E38.69735
G1 X69 Y83.611 E38.71501
G1 X69.166 Y83.936 E38.73308
G1 X69.298 Y84.052 E38.74178
G1 X69.632 Y84.199 E38.75986
G1 X70.133 Y84.257 E38.78484
G1 X70.632 Y84.258 E38.80955
G1 F1680 E35.80955
G0 F3600 X66.511 Y84.812
;TYPE:WALL-INNER
G1 F1680 E38.80955
G1 F1369.8 X66.648 Y85.428 E38.83967
G1 F1320 X66.546 Y85.967 E38.86684
G1 X66.407 Y86.24 E38.88201
G1 X66.128 Y86.553 E38.90278
G1 X65.752 Y86.794 E38.9249
G1 X65.374 Y86.914 E38.94454
G1 X64.966 Y86.95 E38.96483
G1 X64.55 Y86.903 E38.98556
G1 X64.176 Y86.771 E39.00521
G1 X63.874 Y86.574 E39.02307
G1 X63.564 Y86.229 E39.04604
G1 X63.362 Y85.723 E39.07302
G1 X63.339 Y85.306 E39.09371
G1 F1241 X63.419 Y84.801 E39.12064
G1 F1119.1 X63.616 Y84.426 E39.14539
G1 F1071.6 X63.812 Y84.218 E39.16283
G1 X63.607 Y84.07 E39.17825
G1 X63.421 Y83.589 E39.20972
G1 X63.421 Y83.504 E39.2149
G1 F1083.6 X63.07 Y84.367 E39.27111
G1 F1197.5 X62.736 Y84.717 E39.29752
G1 F1320 X62.313 Y85.261 E39.33165
G1 X61.768 Y85.73 E39.36727
G1 X61.111 Y86.136 E39.40552
G1 X60.049 Y86.518 E39.46142
G1 X58.781 Y86.648 E39.52455
G1 X57.28 Y86.506 E39.59922
G1 X56.572 Y86.303 E39.6357
G1 X56.383 Y86.185 E39.64674
G1 X56.21 Y85.935 E39.6618
G1 X56.165 Y85.71 E39.67316
G1 F1257.1 X56.165 Y83.758 E39.77467
G1 F1121.2 X56.272 Y83.531 E39.78931
G1 F1171 X56.66 Y83.347 E39.81328
G1 F1320 X57.008 Y83.346 E39.83052
G1 X57.612 Y83.624 E39.86345
G1 X58.112 Y83.751 E39.889
G1 X58.635 Y83.791 E39.91498
G1 X59.297 Y83.697 E39.9481
G1 X59.676 Y83.523 E39.96875
G1 X59.97 Y83.284 E39.98752
G1 X60.263 Y82.867 E40.01276
G1 X60.41 Y82.414 E40.03635
G1 X60.462 Y81.846 E40.0646
G1 X60.377 Y81.173 E40.09819
G1 X60.222 Y80.794 E40.11847
G1 X59.99 Y80.478 E40.13789
G1 X59.597 Y80.191 E40.16199
G1 X59.215 Y80.058 E40.18203
G1 X58.731 Y80.008 E40.20613
G1 X58.18 Y80.054 E40.23351
G1 X57.653 Y80.194 E40.26052
G1 X57.107 Y80.452 E40.29043
G1 X56.779 Y80.514 E40.30696
G1 X56.58 Y80.35 E40.31973
G1 X56.615 Y80.796 E40.34189
G1 X56.565 Y81.455 E40.37462
G1 X56.426 Y82.064 E40.40556
G1 X56.131 Y82.716 E40.44101
G1 F1171 X55.847 Y83.181 E40.47143
G1 F1075.6 X55.663 Y83.388 E40.48826
G1 F1197.5 X55.503 Y83.479 E40.49831
G1 F1317 X54.84 Y83.951 E40.53871
G1 F1320 X54.256 Y84.191 E40.56998
G1 X53.693 Y84.325 E40.59865
G1 X52.896 Y84.39 E40.63825
G1 X52.167 Y84.341 E40.67444
G1 X51.569 Y84.219 E40.70467
G1 X50.832 Y83.902 E40.7444
G1 X50.207 Y83.419 E40.78353
G1 X49.808 Y82.933 E40.81467
G1 X49.546 Y82.472 E40.84093
G1 X49.404 Y82.061 E40.86247
G1 X49.401 Y86.351 E41.07495
G1 X49.355 Y86.54 E41.08458
G1 X49.154 Y86.809 E41.10121
G1 X49.033 Y86.885 E41.10829
G1 X48.804 Y86.949 E41.12007
G1 X46.977 Y86.951 E41.21055
G1 X46.639 Y86.842 E41.22814
G1 X46.463 Y86.671 E41.2403
G1 X46.346 Y86.344 E41.2575
G1 X46.344 Y82.03 E41.47117
G1 X46.033 Y82.738 E41.50947
G1 X45.544 Y83.368 E41.54896
G1 X45.085 Y83.756 E41.57873
G1 X44.66 Y84.017 E41.60343
G1 X43.967 Y84.291 E41.64034
G1 X43.072 Y84.391 E41.68495
G1 X42.34 Y84.329 E41.72133
G1 X41.716 Y84.153 E41.75344
G1 X41.164 Y83.859 E41.78442
G1 X40.669 Y83.438 E41.8166
G1 X40.174 Y82.698 E41.8607
G1 X40.064 Y82.361 E41.87826
G1 X39.869 Y82.763 E41.90039
G1 X39.366 Y83.376 E41.93966
G1 X38.883 Y83.762 E41.97028
G1 X38.423 Y84.022 E41.99645
G1 X37.575 Y84.299 E42.04064
G1 X36.655 Y84.389 E42.08642
G1 X35.919 Y84.357 E42.12291
G1 X35.309 Y84.237 E42.1537
G1 X34.827 Y84.035 E42.17958
G1 X34.649 Y83.881 E42.19124
G1 X34.503 Y83.601 E42.20688
G1 X34.503 Y82.793 E42.2469
G1 X33.992 Y83.417 E42.28685
G1 X33.473 Y83.813 E42.31918
G1 X33.026 Y84.055 E42.34436
G1 X32.244 Y84.301 E42.38496
G1 X31.294 Y84.389 E42.43221
G1 X30.571 Y84.34 E42.4681
G1 X29.969 Y84.215 E42.49856
G1 X29.245 Y83.903 E42.5376
G1 X28.614 Y83.417 E42.57705
G1 X28.245 Y82.977 E42.60549
G1 X27.964 Y82.5 E42.63291
G1 X27.71 Y81.754 E42.67194
G1 X27.617 Y80.848 E42.71705
G1 X27.67 Y80.139 E42.75226
G1 X27.806 Y79.513 E42.78399
G1 X28.132 Y78.786 E42.82345
G1 X28.632 Y78.154 E42.86337
G1 X29.093 Y77.776 E42.89289
G1 X29.636 Y77.48 E42.92353
G1 X30.392 Y77.234 E42.9629
G1 X31.314 Y77.15 E43.00876
G1 X32.053 Y77.197 E43.04543
G1 X32.671 Y77.332 E43.07676
G1 X33.397 Y77.642 E43.11586
G1 X33.96 Y78.074 E43.15101
G1 X34.357 Y78.52 E43.18058
G1 X34.503 Y78.753 E43.1942
G1 X34.503 Y78.071 E43.22798
G1 X34.547 Y77.909 E43.23629
G1 X34.767 Y77.6 E43.25508
G1 X35.379 Y77.34 E43.28801
G1 X36.006 Y77.203 E43.3198
G1 X36.867 Y77.147 E43.36253
G1 X37.474 Y77.191 E43.39268
G1 X37.993 Y77.299 E43.41893
G1 X38.751 Y77.605 E43.45942
G1 X39.365 Y78.071 E43.4976
G1 X39.758 Y78.507 E43.52667
